X:1
T:Grounds of Moggie Lowther. SenH.141, A
T:Grounds of Moggie Lowther. SenH.141, A
T:Moggie Lawder,aka. SenH.141 Maggy Lauder,aka. SenH.141 Scotch Lass's Lamentation for the Loss of her Maiden Head. SenH.141, The
T:in Hand C
C:in Hand C
L:1/8
Q:1/4=100
M:4/4
K:C
V:1 treble 
V:1
 c2- c2 c2- c2 | c2- c2 c2- c2 | d3 e d2 c2 | B4 d4 | e2 c2 c2 e2 | c4 c4 | g3 a g2 f2 | e4 g4 | %8
 g3 a g2 e2 | f3 g f2 d2 | e3 f e2 G2 | B4 d4 | e3 f e2 c2 | f3 g f2 d2 | e2 g2 d2 e2 | c4 c4 || %16
 e2 c2 c2 d2 | c4 c4 | B2 d2 d2 G2 | B4 d4 | e2 c2 c2 d2 | c4 c4 | g2 a2 g2 f2 | e4 g4 | %24
 g2 a2 g2 e2 | f2 g2 f2 d2 | (edef e2) c2 | B4 d4 | (edef e2) c2 | (fefg f2) d2 | e2 c'2 d2 e2 | %31
 c4 c4 || (c'3 d') (c'3 d') | (c'3 d') c'4 | d'3 e' d'2 c'2 | b4 d'4 | e'2 c'2 d'2 b2 | %37
 c'2 g2 ab c'2 | g2 (ab) (c'b) (ag) | e4 g4 | c'2 g2 ab c'2 | g2 (ab) (c'b) (ag) | %42
 e2 (de) (fe) (dc) | B4 d4 | F2 A2 G2 B2 | A2 c2 B2 d2 | e2 g2 d2 e2 | c4 c4 || (edef) e2 c2 | %49
 (edef) e2 c2 | (dcde) d2 G2 | B4 d4 | edef e2 c2 | edef e2 c2 | gfga g2 f2 | e4 g4 | %56
 (gfga) (gage) | (fefg) (fefd) | (edef) (edeA) | B4 d4 | (edef) (edec) | (fefg) (fefd) | %62
 (efeg) (dede) | c4 c4 || gfed cdef | gfed cdef | dcBA GABG | B4 d4 | gfed cdef | gfed cdef | %70
 gfga g2 d2 | e4 g4 | gfga gage | fefg fgfd | edef edec | B4 d4 | f2 e2 d2 c2 | f2 e2 d2 (ef) | %78
 e2 c'2 d2 e2 | c4 c4 || c'2 c2 c2 f2 | e2 c2 c2 e2 | d2 G2 G2 d2 | B4 d4 | c'2 c2 c2 f2 | %85
 e2 c2 c2 e2 | g3 a g2 f2 | e4 g4 | g2 e2 c'2 e2 | f2 d2 b2 d2 | e2 (ef) (gf) (ed) | B4 d4 | %92
 f2 e2 d2 c2 | B2 A2 G2 g2 | e2 c'2 d2 e2 | c4 c4 || c2 e2 G2 e2 | c2 e2 G2 e2 | B2 d2 G2 d2 | %99
 B2 d2 G2 d2 | c2 e2 A2 e2 | c2 e2 A2 e2 | (fefg) (fefd) | e4 g4 | a2 c'2 g2 c'2 | e2 c'2 c2 f2 | %106
 edef edcA | B4 d4 | g2 e2 a2 f2 | b2 g2 c'2 e2 | e2 c'2 d2 e2 | c4 c4 |] %112

